packages/ui-solid/icons/person_add_28.svg

<svg width="28" height="28" viewBox="0 0 28 28" fill="none" xmlns="http://www.w3.org/2000/svg">
<path fill-rule="evenodd" clip-rule="evenodd" d="M17.6189 5.94652C15.671 5.94652 14.1536 7.46051 14.1536 9.2533C14.1536 11.0461 15.671 12.5601 17.6189 12.5601C19.5669 12.5601 21.0843 11.0461 21.0843 9.2533C21.0843 7.46051 19.5669 5.94652 17.6189 5.94652ZM12.175 9.2533C12.175 6.30079 14.6464 3.96794 17.6189 3.96794C20.5914 3.96794 23.0628 6.30079 23.0628 9.2533C23.0628 12.2058 20.5914 14.5387 17.6189 14.5387C14.6464 14.5387 12.175 12.2058 12.175 9.2533ZM5.36866 8.26402C5.91502 8.26402 6.35794 8.70694 6.35794 9.2533V11.4861H8.70964C9.25601 11.4861 9.69892 11.929 9.69892 12.4754C9.69892 13.0217 9.25601 13.4647 8.70964 13.4647H6.35794V15.6974C6.35794 16.2438 5.91502 16.6867 5.36866 16.6867C4.82229 16.6867 4.37937 16.2438 4.37937 15.6974V13.4647H2.02767C1.48131 13.4647 1.03839 13.0217 1.03839 12.4754C1.03839 11.929 1.48131 11.4861 2.02767 11.4861H4.37937V9.2533C4.37937 8.70694 4.82229 8.26402 5.36866 8.26402ZM17.6189 18.2977C11.8579 18.2977 10.3806 21.5254 10.2505 22.7806C10.1941 23.324 9.70789 23.7189 9.16443 23.6626C8.62098 23.6062 8.2261 23.12 8.28246 22.5765C8.52352 20.2517 10.907 16.3192 17.6189 16.3192C24.3309 16.3192 26.7143 20.2517 26.9554 22.5765C27.0117 23.12 26.6169 23.6062 26.0734 23.6626C25.53 23.7189 25.0437 23.324 24.9874 22.7806C24.8572 21.5254 23.38 18.2977 17.6189 18.2977Z" fill="#007AFF"/>
</svg>

<svg xmlns="http://www.w3.org/2000/svg" width="28" height="28" fill="none"><path fill="currentColor" fill-rule="evenodd" d="M17.619 5.947c-1.948 0-3.465 1.514-3.465 3.306s1.517 3.307 3.465 3.307 3.465-1.514 3.465-3.307-1.517-3.306-3.465-3.306m-5.444 3.306c0-2.952 2.471-5.285 5.444-5.285s5.444 2.333 5.444 5.285-2.472 5.286-5.444 5.286-5.444-2.333-5.444-5.286m-6.806-.989a.99.99 0 0 1 .989.99v2.232H8.71a.99.99 0 1 1 0 1.979H6.358v2.232a.99.99 0 1 1-1.979 0v-2.232H2.028a.99.99 0 0 1 0-1.979h2.351V9.253a.99.99 0 0 1 .99-.989m12.25 10.034c-5.761 0-7.238 3.227-7.368 4.483a.99.99 0 0 1-1.969-.204c.242-2.325 2.625-6.258 9.337-6.258s9.095 3.933 9.336 6.258a.99.99 0 0 1-1.968.204c-.13-1.256-1.607-4.483-7.368-4.483" clip-rule="evenodd"/></svg>
